src/assets/footer/i2.svg

<?xml version="1.0" encoding="UTF-8"?>
<svg width="30px" height="30px" viewBox="0 0 30 30" version="1.1" xmlns="http://www.w3.org/2000/svg" xmlns:xlink="http://www.w3.org/1999/xlink">
    <title>icon / whatsapp white copy</title>
    <g id="Mobile" stroke="none" stroke-width="1" fill="none" fill-rule="evenodd" opacity="0.859483991">
        <g id="Mobile-landing-" transform="translate(-232.000000, -1766.000000)" fill="#EBEBEB">
            <g id="whatsapp-icon-seeklogo.com" transform="translate(232.000000, 1766.000000)">
                <path d="M25.628973,4.35961653 C22.8086146,1.54991445 19.0583781,0.00171426332 15.0627637,0 C6.82918267,0 0.128703515,6.66843535 0.125407209,14.8648916 C0.124447837,17.4849226 0.812096548,20.0424566 2.11913093,22.2968598 L0,30 L7.91846408,27.9329413 C10.100151,29.1174483 12.5565875,29.7416115 15.0563433,29.7426156 L15.0626899,29.7426156 L15.0627637,29.7426156 C23.2950164,29.7426156 29.9965042,23.0730048 30,14.8769404 C30.0013748,10.9045515 28.4489625,7.16951452 25.628973,4.35961653 Z M15.0627637,27.2318811 L15.0579177,27.2318811 C12.8297627,27.2307056 10.6447548,26.6351705 8.73889979,25.5093158 L8.28533798,25.2416458 L3.58635592,26.4681523 L4.84092,21.9087996 L4.54540866,21.4413689 C3.30252924,19.4739824 2.64639223,17.2004039 2.64732601,14.8658467 C2.65005752,8.05321726 8.21923967,2.51083251 15.0674622,2.51083251 C18.3837424,2.51220392 21.5006454,3.79907691 23.8448353,6.13441784 C26.1888776,8.46973427 27.47884,11.5742162 27.4778566,14.8758873 C27.4749534,21.6887371 21.9055744,27.2318811 15.0627637,27.2318811 L15.0627637,27.2318811 Z" id="Shape" fill-rule="nonzero"></path>
                <path d="M11.3715902,8.55402705 C11.0952417,7.94235341 10.8042813,7.93010867 10.541364,7.91940677 C10.3263169,7.91022321 10.0801272,7.91077975 9.83433103,7.91077975 C9.58833807,7.91077975 9.18859952,8.00281792 8.850556,8.37035598 C8.51231568,8.73789404 7.55909297,9.62639672 7.55909297,11.4334507 C7.55909297,13.2407005 8.88130512,14.9869226 9.06560304,15.2321847 C9.25009776,15.4770795 11.6179768,19.3039519 15.3680164,20.7761858 C18.4846242,21.9997045 19.1188432,21.7563281 19.7953238,21.6951044 C20.4718045,21.6338807 21.9781177,20.8067976 22.2856089,19.9490782 C22.5931001,19.0915547 22.5931001,18.3565031 22.5008528,18.2028561 C22.4086054,18.0497969 22.1626125,17.9579614 21.793623,17.7742903 C21.4246336,17.5906192 19.6108291,16.7019206 19.2725888,16.5794732 C18.9343485,16.4570259 18.6883555,16.3958022 18.4423626,16.7635361 C18.1963696,17.1308783 17.4897056,17.9579614 17.2744618,18.2028561 C17.059218,18.4483141 16.8439741,18.478926 16.4749847,18.2952549 C16.1059953,18.1110206 14.9177263,17.7235726 13.5080882,16.4723073 C12.411304,15.4988506 11.670816,14.2965643 11.4555722,13.9288548 C11.2403284,13.5615127 11.4324981,13.3625357 11.6175832,13.1794279 C11.7832348,13.0148831 11.9865726,12.7506661 12.1710673,12.5361873 C12.3551685,12.3217085 12.4166667,12.1686492 12.5396632,11.9237545 C12.6626596,11.6784679 12.6011614,11.4640135 12.5089141,11.2803425 C12.4166667,11.0966714 11.6996464,9.28028695 11.3715902,8.55402705 L11.3715902,8.55402705 Z" id="Path"></path>
                <path d="M25.5069605,4.31237633 C22.7189747,1.53492689 19.0117871,0.00453055307 15.062075,0.00279180027 C6.92297978,0.00279180027 0.299422627,6.59467305 0.296150921,14.6970407 C0.295191548,17.2870232 0.974943886,19.8151698 2.26697269,22.0437121 L0.17219507,29.6583963 L7.99976475,27.6150434 C10.1564342,28.7859342 12.5846553,29.4029711 15.0557283,29.4039262 L15.0620012,29.4039262 L15.062075,29.4039262 C23.1998172,29.4039262 29.8243337,22.8108939 29.8278031,14.7088936 C29.8291551,10.7821775 28.2945773,7.09002168 25.5069605,4.31237633 L25.5069605,4.31237633 Z M15.062075,26.9220892 L15.0572781,26.9220892 C12.8546818,26.9209382 10.6947406,26.3322357 8.81077893,25.2193114 L8.36240757,24.9547026 L3.71737177,26.1671276 L4.95752066,21.6601089 L4.66540402,21.198066 C3.4367922,19.2532587 2.78818257,17.0057616 2.78914088,14.6980203 C2.79182327,7.96361027 8.29707184,2.48484918 15.0666996,2.48484918 C18.3449494,2.4861961 21.4260111,3.75830193 23.7433386,6.06682688 C26.0604693,8.37535183 27.3355983,11.4441771 27.3346395,14.7079875 C27.3317363,21.4425689 21.8262909,26.9220892 15.062075,26.9220892 Z" id="Shape" fill-rule="nonzero"></path>
            </g>
        </g>
    </g>
</svg>

<svg xmlns="http://www.w3.org/2000/svg" width="30" height="30" viewBox="0 0 30 30"><g><g opacity=".86"><path fill="#fff" d="M11.373 8.553c-.277-.611-.568-.624-.83-.634-.216-.01-.462-.009-.708-.009-.246 0-.645.092-.984.46-.338.367-1.291 1.256-1.291 3.063 0 1.807 1.322 3.553 1.507 3.798.184.245 2.552 4.072 6.302 5.544 3.117 1.224 3.75.98 4.427.92.677-.062 2.183-.889 2.49-1.747.308-.857.308-1.592.216-1.746-.092-.153-.338-.245-.707-.428-.37-.184-2.183-1.073-2.521-1.195-.339-.123-.585-.184-.83.184-.247.367-.953 1.194-1.169 1.44-.215.245-.43.275-.8.091-.368-.184-1.556-.571-2.966-1.822-1.097-.974-1.837-2.176-2.053-2.544-.215-.367-.023-.566.162-.75.166-.164.37-.428.554-.643.184-.214.246-.367.369-.612s.061-.46-.031-.643c-.092-.184-.81-2-1.137-2.727z"/></g><g opacity=".86"><path fill="#fff" d="M15.055 26.92h-.005a12.29 12.29 0 0 1-6.244-1.703l-.448-.265-4.643 1.212 1.24-4.507-.293-.462a12.145 12.145 0 0 1-1.875-6.5C2.79 7.961 8.293 2.482 15.059 2.482a12.213 12.213 0 0 1 8.674 3.582 12.115 12.115 0 0 1 3.59 8.641C27.32 21.44 21.815 26.92 15.054 26.92zM15.06 0C6.92 0 .297 6.592.294 14.694a14.618 14.618 0 0 0 1.97 7.347L.17 29.656l7.828-2.044a14.808 14.808 0 0 0 7.056 1.79h.006c8.138 0 14.762-6.594 14.766-14.696A14.573 14.573 0 0 0 25.505 4.31 14.707 14.707 0 0 0 15.06 0z"/></g></g></svg>
